korla-light/actions/symbolic/fcitx-punc-active-symbolic.svg

<svg style="clip-rule:evenodd;fill-rule:evenodd;stroke-linejoin:round;stroke-miterlimit:2" version="1.1" viewBox="0 0 16 16" xmlns="http://www.w3.org/2000/svg">
 <path d="m3 3c-1.646 0-3 1.354-3 3s1.354 3 3 3 3-1.354 3-3-1.354-3-3-3zm9 0c-1.646 0-3 1.354-3 3s1.354 3 3 3c0.236-2e-3 0.472-0.031 0.701-0.088-0.541 1.231-1.766 2.088-3.201 2.088h-0.5v2h0.6c2.991 0 5.4-2.453 5.4-5.5v-1.5c0-1.646-1.354-3-3-3zm-9 1.325c0.919 0 1.675 0.756 1.675 1.675s-0.756 1.675-1.675 1.675-1.675-0.756-1.675-1.675 0.756-1.675 1.675-1.675zm9 0c0.919 0 1.675 0.756 1.675 1.675s-0.756 1.675-1.675 1.675-1.675-0.756-1.675-1.675 0.756-1.675 1.675-1.675z" style="fill-rule:nonzero;fill:rgb(68,68,68)"/>
</svg>

<svg xmlns="http://www.w3.org/2000/svg" width="16" height="16" version="1.1">
 <path style="fill:#444444" d="M 3 3 A 3 3 0 0 0 0 6 A 3 3 0 0 0 3 9 A 3 3 0 0 0 6 6 A 3 3 0 0 0 3 3 z M 12 3 A 3 3 0 0 0 9 6 A 3 3 0 0 0 12 9 A 3 3 0 0 0 12.701 8.9121 C 12.16 10.143 10.935 11 9.5 11 L 9 11 L 9 13 L 9.5996 13 C 12.591 13 15 10.547 15 7.5 L 15 6 A 3 3 0 0 0 12 3 z M 3 5 A 1 1 0 0 1 4 6 A 1 1 0 0 1 3 7 A 1 1 0 0 1 2 6 A 1 1 0 0 1 3 5 z M 12 5 A 1 1 0 0 1 13 6 A 1 1 0 0 1 12 7 A 1 1 0 0 1 11 6 A 1 1 0 0 1 12 5 z"/>
</svg>
